!!!!SEGMENT: pl-kk--kk-i-1--047_anonim--protexisti-me.krn
!!!cenid: 15xx:760
!!!COM: Anonim
!!!COM-rismid: pe30004985
!!!CDT:
!!!CNT:
!!!OTL: Protexisti me
!!!PDT:
!!!AGN:
!!!SMS-siglum: PL-Kk
!!!SMS-shelfmark: Kk.I.1
!!!SMS-shelfwork: 047 W
!!!SMS-variant:
!!!SMS-altvar:
!!!NIFC-rismid: 300258001
!!!URL-scan: http://repozytorium.nifc.pl/skany/pl-kk-nut--i-1
!!!ONB-nifc: UWAGA: Cantus (s. 144r-145r, skan 0146-0147), Altus (s. 139r-140r, skan 0332-0333), Tenor (s. 118v-119r, skan 0509), Bassus (s. 131v-132v, skan 0694-0695).
!!!AIN: 1 alto 1 bass 1 soprn 1 tenor
!!!key: G:mix
**kern	**text	**kern	**text	**kern	**text	**kern	**text
*part4	*part4	*part3	*part3	*part2	*part2	*part1	*part1
*staff4	*staff4	*staff3	*staff3	*staff2	*staff2	*staff1	*staff1
*I"BASSVS	*	*I"TENOR	*	*I"ALTVS	*	*I"CANTVS	*
*I'B	*	*I'T	*	*I'A	*	*I'S	*
*ICvox	*	*ICvox	*	*ICvox	*	*ICvox	*
*Ibass	*	*Itenor	*	*Ialto	*	*Isoprn	*
*clefF3	*	*clefC3	*	*clefC3	*	*clefC2	*
*G:mix	*	*G:mix	*	*G:mix	*	*G:mix	*
*k[]	*	*k[]	*	*k[]	*	*k[]	*
*M2/1	*	*M2/1	*	*M2/1	*	*M2/1	*
*met(C|)	*	*met(C|)	*	*met(C|)	*	*met(C|)	*
=1	=1	=1	=1	=1	=1	=1	=1
!LO:TX:t=P:problem= w źródle basus zapisany w kluczu barytonowym	!	!	!	!	!	!	!
!	!	!LO:TX:t=P:problem= w źródle tenor zapisany w kluczu altowym	!	!	!	!	!
!	!	!	!	!	!	!LO:TX:t=P:problem= w źródle cantus zapisany w kluczu mezzosopranowym	!
*	*	*lig	*	*	*	*	*
1r	.	1G	Pro-	2r	.	0d	Pro-
.	.	.	.	1g	Pro-	.	.
*lig	*	*	*	*	*	*	*
1D	Pro-	1A	.	.	.	.	.
.	.	.	.	2f\	-te-	.	.
*	*	*Xlig	*	*	*	*	*
=2	=2	=2	=2	=2	=2	=2	=2
1E	.	1G	-te-	2.g\	-xi-	2B/	-te-
.	.	.	.	.	.	4c/	.
.	.	.	.	4f\	.	4d/	.
*Xlig	*	*	*	*	*	*	*
2C/	-te-	1G	-xi-	2e\	.	2e/	-xi-
2E/	-xi-	.	.	2c/	-ſti	1g	.
=3	=3	=3	=3	=3	=3	=3	=3
*	*	*lig	*	*	*	*	*
1D	.	1A	.	1d	me	.	.
.	.	.	.	.	.	2f\	-ſti
*	*	*	*	*lig	*ij	*	*
1C	-ſti.	1c	.	1G	pro-	2.g\	.
.	.	.	.	.	.	4f\	.
*	*	*Xlig	*	*	*	*	*
=4	=4	=4	=4	=4	=4	=4	=4
2r	.	1c	-ſti	1A	.	2e/	.
1c	.	.	.	.	.	2c/	.
*	*	*lig	*	*Xlig	*	*	*
.	.	1d	me	2G/	.	1g	me
2B\	.	.	.	2G/	-te-	.	.
=5	=5	=5	=5	=5	=5	=5	=5
2c\	.	1c	.	4A/	.	2.e/	De-
.	.	.	.	4B/	.	.	.
2A\	.	.	.	1c	.	.	.
.	.	.	.	.	.	4f\	.
*	*	*Xlig	*	*	*	*	*
1G	me	1d	.	.	.	1g	-us
.	.	.	.	4B/	.	.	.
.	.	.	.	4A/	.	.	.
=6	=6	=6	=6	=6	=6	=6	=6
*	*	*lig	*	*	*	*	*ij
1G	De-	1d	De-	2B/	.	2r	.
.	.	.	.	2B/	-xi-	1g	pro-
2C/	-us	1e	.	2c/	.	.	.
*	*	*	*	*custos:d	*	*custos:a	*
*	*ij	*	*	*	*	*	*
1c	pro-	.	.	2e\	.	2g\	-te-
!	!	!	!	!	!	!	!
*	*	*Xlig	*	*	*	*	*
!	!	!	!	!LO:LB:g=original	!	!	!LO:LB:g=original
=7	=7	=7	=7	=7	=7	=7	=7
*	*	*lig	*	*	*	*	*
!	!	!	!	!	!	!LO:TX:t=P:problem=od tej nuty do końca systemu bemol przy kluczu	!
.	.	1f	.	1d	.	2a\	-xi-
*custos:c	*	*	*	*	*	*	*
2B-X\	-te-	.	.	.	.	2b-X\	-ſti
!LO:LB:g=original	!	!	!	!	!	!	!
2c\	-xi-	1e	.	2e\	.	2g\	me
2A\	-ſti	.	.	2c/	-ſti	2.a\	De-
*	*	*Xlig	*	*	*	*	*
=8	=8	=8	=8	=8	=8	=8	=8
*	*	*lig	*	*	*	*	*
1B	me	1d	.	2f\	me	.	.
*	*	*	*	*	*Xij	*	*
.	.	.	.	.	.	8g\L	.
.	.	.	.	.	.	8f\J	.
.	.	.	.	2.d\	De-	2g\	.
*	*	*custos:f	*	*	*	*	*
1A	De-	1e	.	.	.	0a	-us
.	.	.	.	8c/L	.	.	.
.	.	.	.	8B/J	.	.	.
.	.	.	.	2c/	.	.	.
*	*	*Xlig	*	*	*	*	*Xij
!	!	!LO:LB:g=original	!	!	!	!	!
=9	=9	=9	=9	=9	=9	=9	=9
*	*	*lig	*	*	*	*	*
0D	-us	1f	-us	2d\	-us	.	.
.	.	.	.	2A/	a	.	.
.	.	1d	.	2A/	con-	2r	.
.	.	.	.	2A/	-uen-	1a	A
*	*Xij	*Xlig	*	*	*	*	*
=10	=10	=10	=10	=10	=10	=10	=10
2r	.	1d	a	0B	-tu	.	.
2G\	A	.	.	.	.	4g\	.
.	.	.	.	.	.	4f\	.
2.G\	Con-	1d	con-	.	.	2.g\	Con-
4F/	.	.	.	.	.	4a\	.
=11	=11	=11	=11	=11	=11	=11	=11
*	*	*lig	*	*	*ij	*	*
4G\	.	1d	-uen-	2r	.	2b-X\	-uen-
4A\	.	.	.	.	.	.	.
2B\	.	.	.	1d	a	4a\	.
.	.	.	.	.	.	4g\	.
2.A\	-uen-	1e	.	.	.	0a	-tu.
.	.	.	.	4c/	con-	.	.
4G\	.	.	.	4B/	.	.	.
*	*	*Xlig	*	*	*	*	*
=12	=12	=12	=12	=12	=12	=12	=12
*	*	*lig	*	*	*	*	*ij
2F/	.	1f	.	2c/	-uen-	.	.
4E/	.	.	.	1d	.	.	.
4D/	.	.	.	.	.	.	.
1A	-tu.	1e	.	.	.	2r	.
.	.	.	.	2c/	.	2a\	a
*	*	*Xlig	*	*	*	*	*
=13	=13	=13	=13	=13	=13	=13	=13
*	*	*lig	*	*	*	*	*
2r	.	1f	-tu	2d\	-tu	2a\	con-
*	*	*	*	*	*Xij	*	*
2F/	ma-	.	.	1c	ma-	2a\	-uen-
2.G\	-li-	1d	.	.	.	2g\	-tu
*	*	*	*	*	*	*	*Xij
*	*	*	*	*custos:c	*	*	*
.	.	.	.	2B/	-li-	1g	ma-
4F/	.	.	.	.	.	.	.
*custos:C	*	*	*	*	*	*	*
*	*	*Xlig	*	*	*	*	*
!LO:LB:g=original	!	!	!	!LO:LB:g=original	!	!	!
=14	=14	=14	=14	=14	=14	=14	=14
2E/	.	1c	ma-	4c/	-gnan-	.	.
.	.	.	.	4B/	.	.	.
1F	-gnan-	.	.	4A/	.	1a	-li-
.	.	.	.	4G/	.	.	.
.	.	1d	-li-	2A/	-ti-	.	.
2G\	.	.	.	2B/	-um.	1g	-gna(n)-
=15	=15	=15	=15	=15	=15	=15	=15
*lig	*	*lig	*	*	*ij	*	*
1A	-ti-	1c	.	2r	.	.	.
*	*	*	*	*	*	*custos:g	*
.	.	.	.	2c/	ma-	2f\	-ti-
!	!	!	!	!	!	!LO:LB:g=original	!
1G	.	1B	.	1d	-li-	2g\	-um
.	.	.	.	.	.	2d/	.
*Xlig	*	*Xlig	*	*	*	*	*
=16	=16	=16	=16	=16	=16	=16	=16
*	*	*lig	*	*	*	*	*
2C/	-um	1c	-gna(m)	2c/	-gnan-	2.e/	.
*	*ij	*	*	*	*	*	*
1c	ma-	.	.	2A/	-ti-	.	.
.	.	.	.	.	.	4f\	.
.	.	1d	.	0G	-um	2g\	.
4B\	.	.	.	.	.	2g\	.
4A\	.	.	.	.	.	.	.
*	*	*Xlig	*	*	*Xij	*	*
=17	=17	=17	=17	=17	=17	=17	=17
2B\	.	1d	ti-	.	.	2r	.
2B\	-li-	.	.	.	.	1g	.
2c\	.	2e\	.	1r	.	.	.
*	*	*	*	*	*	*	*
2F/	.	2.f\	.	.	.	1a	.
=18	=18	=18	=18	=18	=18	=18	=18
2F/	-gnan-	.	.	1r	.	.	.
.	.	4e\	.	.	.	.	.
2G\	.	1d	.	.	.	4g\	.
.	.	.	.	.	.	4f\	.
1A	-ti-	.	.	2r	.	1e	.
*	*	*custos:d	*	*	*	*	*
*	*	*	*	*lig	*	*	*
.	.	2c/	.	1A	al-	.	.
!	!	!LO:LB:g=original	!	!	!	!	!
=19	=19	=19	=19	=19	=19	=19	=19
2D/	-um	1d	-um	.	.	2f\	.
*	*Xij	*	*	*	*	*	*
1G	al-	.	.	1B	.	2d/	.
.	.	1d	al-	.	.	2r	.
*	*	*lig	*	*	*	*	*
*	*	*	*	*Xlig	*	*	*
2F/	-le-	.	.	2A/	.	1a	al-
=20	=20	=20	=20	=20	=20	=20	=20
2E/	-lu-	1e	.	2B/	-le-	.	.
2C/	.	.	.	1c	.	2g\	-le
*	*	*Xlig	*	*	*	*	*
*custos:G	*	*	*	*	*	*	*
1D	-ia.	1d	-le-	.	.	4f\	.
.	.	.	.	.	.	4e/	.
.	.	.	.	4B/	.	1a	.
.	.	.	.	4A/	.	.	.
!LO:LB:g=original	!	!	!	!	!	!	!
=21	=21	=21	=21	=21	=21	=21	=21
1r	.	1d	-lu-	1B	-lu-	.	.
.	.	.	.	.	.	2g\	lu-
2r	.	2e\	.	2A/	-ia.	2a\	-ia
*	*	*	*	*custos:d	*	*	*
*	*ij	*	*	*	*	*	*
1G	al-	[2g\	.	2d\	.	1b-X	.
!	!	!	!	!LO:LB:g=original	!	!	!
=22	=22	=22	=22	=22	=22	=22	=22
.	.	2g\]	.	2d\	.	.	.
2A\	-le-	4f\	.	2.c/	.	4a\	.
*	*	*	*	*	*	*custos:a	*
.	.	4e\	.	.	.	4g\	.
!	!	!	!	!	!	!LO:LB:g=original	!
2.F/	-lu-	1f	.	.	.	1a	.
.	.	.	.	4A/	.	.	.
.	.	.	.	1d	.	.	.
4G\	.	.	.	.	.	.	.
=23	=23	=23	=23	=23	=23	=23	=23
*	*	*lig	*	*	*	*	*
1A	.	1e	-ia	.	.	2a\	.
.	.	.	.	2c/	.	2e/	a
!	!	!	!	!	!	!LO:TX:t=P:problem=# above	!
1D	-ia	1d	.	2d\	.	4f#X\	mul-
.	.	.	.	.	.	4e\	.
.	.	.	.	2A/	a	4f#\	.
.	.	.	.	.	.	4g\	-ti-
*	*Xij	*Xlig	*	*	*	*	*
=24	=24	=24	=24	=24	=24	=24	=24
*	*	*lig	*	*	*	*	*
0r	.	1d	A	2F/	mul-	2a\	-tu-
.	.	.	.	2G/	-ti-	1g	-di-
.	.	1c	.	1A	-tu-	.	.
.	.	.	.	.	.	2f\	-ne
*	*	*Xlig	*	*	*	*	*
=25	=25	=25	=25	=25	=25	=25	=25
*lig	*	*	*	*	*	*	*ij
1G	a	1d	mul-	2G/	-di-	2g\	a
.	.	.	.	2B/	-ne.	2g\	mul-
*col	*	*	*	*	*	*	*
2.F\	.	1f	-ti-	2c/	.	1a	.
.	.	.	.	4A/	.	.	.
*Xlig	*	*	*	*	*	*	*
4G\	.	.	.	4B/	.	.	.
*Xcol	*	*	*	*	*	*	*
=26	=26	=26	=26	=26	=26	=26	=26
4A\	.	2.e\	-tu-	4c\	.	2a\	-ti-
4B\	.	.	.	4d\	.	.	.
1c	mul-	.	.	2e\	.	2g\	-tu-
.	.	4f\	.	.	.	.	.
.	.	2g\	.	2e\	.	2e/	-di-
2d\	-ti-	2f\	.	1d	.	2f\	-ne
*	*	*	*	*	*	*	*Xij
=27	=27	=27	=27	=27	=27	=27	=27
*	*	*custos:d	*	*	*	*	*
1A	-tu-	1e	-di-	.	.	2r	.
.	.	.	.	2c/	.	1a	o-
!	!	!LO:LB:g=original	!	!	!	!	!
1B	-di-	2d\	-ne	2d\	.	.	.
*	*	*	*	*custos:c	*	*	*
.	.	2d\	o-	2G/	o-	2g\	-pe-
!	!	!	!	!LO:LB:g=original	!	!	!
=28	=28	=28	=28	=28	=28	=28	=28
2A\	-ne.	1f	-pe-	1c	-pe-	2.a\	-ran-
2F/	o-	.	.	.	.	.	.
.	.	.	.	.	.	4g\	.
2B\	-pe-	2f\	-ran-	2d\	-ran-	4f\	.
.	.	.	.	.	.	4e\	.
4A\	.	1f	-ti-	4c/	.	1a	.
4G\	.	.	.	4B/	.	.	.
=29	=29	=29	=29	=29	=29	=29	=29
*custos:F	*	*	*	*	*	*	*
2F/	-ran-	.	.	2c/	.	.	.
*	*	*	*	*	*	*custos:a	*
!LO:LB:g=original	!	!	!	!	!	!	!
2B\	-ti-	4e\	.	1d	.	2g\	-ti-
.	.	4d\	.	.	.	.	.
!	!	!	!	!	!	!LO:LB:g=original	!
1A	-um.	1e	.	.	.	0a	-um
.	.	.	.	2c/	-ti-	.	.
=30	=30	=30	=30	=30	=30	=30	=30
*	*	*lig	*	*	*	*	*
0D	.	1f	-um	1d	-um.	.	.
*	*	*	*	*lig	*	*	*
!	!	!	!	!	!	!LO:TX:t=P:problem=# below	!
.	.	1d	.	1A	i-	1f#X	i-
*	*	*Xlig	*	*	*	*	*
=31	=31	=31	=31	=31	=31	=31	=31
*	*	*lig	*	*col	*	*	*
2r	.	1d	i-	2.B/	.	2d/	-ni-
1G	i-	.	.	.	.	2.g\	-qui-
*lig	*	*	*	*	*	*	*
*	*	*	*	*Xlig	*	*	*
.	.	.	.	4A/	.	.	.
*	*	*	*	*Xcol	*	*	*
.	.	1e	.	2B/	.	.	.
.	.	.	.	.	.	4f\	.
1A	.	.	.	1c	-ni-	4e/	.
.	.	.	.	.	.	4d/	.
*Xlig	*	*Xlig	*	*	*	*	*
=32	=32	=32	=32	=32	=32	=32	=32
.	.	1e	-ni-	.	.	4e/	.
.	.	.	.	.	.	4f\	.
2G\	.	.	.	2B/	.	2.g\	.
1A	-ni-	2.c/	-qui-	4A/	-qui-	.	.
.	.	.	.	4G/	.	8f\L	.
.	.	.	.	.	.	8e\J	.
.	.	.	.	1c	-ta-	2f\	-ta-
.	.	4d\	.	.	.	.	.
=33	=33	=33	=33	=33	=33	=33	=33
2.G\	-qui-	2e\	.	.	.	2g\	-tem
*	*	*	*	*	*	*	*ij
.	.	2.d\	.	2B/	-tem	1g	i-
4F/	.	.	.	.	.	.	.
2E/	.	.	.	2c/	.	.	.
.	.	4c/	.	.	.	.	.
*	*	*	*	*	*ij	*	*
2F/	-ta-	1c	-ta-	2A/	i-	1a	.
=34	=34	=34	=34	=34	=34	=34	=34
1D	-tem	.	.	1F	-ni-	.	.
.	.	2B/	.	.	.	4g\	-ni-
.	.	.	.	.	.	4f\	.
*	*	*custos:c	*	*custos:A	*	*	*
1C	.	1c	-tem	1G	-qui-	4e\	-qui-
.	.	.	.	.	.	4d/	.
.	.	.	.	.	.	1g	-ta-
!	!	!LO:LB:g=original	!	!LO:LB:g=original	!	!	!
=35	=35	=35	=35	=35	=35	=35	=35
2r	.	1c	al-	1A	-ta-	.	.
1c	al-	.	.	.	.	2f\	.
.	.	1d	-le-	1G	-tem	2g\	-tem
*	*	*	*	*	*Xij	*	*Xij
2B\	-l(e-	.	.	.	.	2d/	al-
=36	=36	=36	=36	=36	=36	=36	=36
1A	-lu-	1c	-lu-	2r	.	2e/	-le-
*	*	*	*	*	*	*custos:g	*
.	.	.	.	1c	al-	2f\	-lu-
*	*	*lig	*	*	*	*	*
!	!	!	!	!	!	!LO:LB:g=original	!
1G	-i)a	1d	.	.	.	2g\	-ia
*	*ij	*	*	*	*	*	*ij
.	.	.	.	2B/	-le-	2d/	al-
=37	=37	=37	=37	=37	=37	=37	=37
2r	.	1c	.	2A/	-lu-	4e\	-le-
.	.	.	.	.	.	4f\	.
2C/	al-	.	.	2G/	-ia	4g\	.
.	.	.	.	.	.	4e\	.
*	*	*Xlig	*	*	*ij	*	*
1.F	-le-	1c	-ia	2.A/	al-	4f\	.
.	.	.	.	.	.	4g\	.
.	.	.	.	.	.	2.a\	.
.	.	.	.	4B/	.	.	.
=38	=38	=38	=38	=38	=38	=38	=38
*	*	*lig	*	*	*	*	*
.	.	1c	al-	4c/	.	.	.
.	.	.	.	4B/	.	4g\	.
*custos:D	*	*	*	*	*	*	*
2E/	-lu-	.	.	4A/	.	1g	-lu-
.	.	.	.	4G/	.	.	.
!LO:LB:g=original	!	!	!	!	!	!	!
1D	-ia	1d	.	1A	.	.	.
.	.	.	.	.	.	2f\	.
*	*	*Xlig	*	*	*	*	*
=39	=39	=39	=39	=39	=39	=39	=39
*	*	*lig	*	*	*	*	*
2r	.	1d	-le-	2G/	.	1g	-ia
2G\	al-	.	.	2.g\	-le-	.	.
2.c\	-le-	1e	.	.	.	2r	.
.	.	.	.	4f\	.	.	.
.	.	.	.	4e\	.	2g\	al-
4B\	.	.	.	4d\	.	.	.
*	*	*Xlig	*	*	*	*	*
=40	=40	=40	=40	=40	=40	=40	=40
*	*	*lig	*	*	*	*	*
2A\	-lu-	1c	.	2e\	.	1a	-le-
2F/	.	.	.	2f\	.	.	.
1G	-ia	1B	.	2d\	.	4g\	.
.	.	.	.	.	.	4f\	.
.	.	.	.	1g	-lu-	4e/	.
.	.	.	.	.	.	4d/	.
*	*	*Xlig	*	*	*	*	*
=41	=41	=41	=41	=41	=41	=41	=41
*	*	*lig	*	*	*	*	*
2r	.	1A	.	.	.	2c/	.
*	*	*	*	*custos:e	*	*	*
!	!	!	!	!LO:TX:t=P:problem=# above	!	!	!
2D/	al-	.	.	2f#X\	.	2d/	.
!	!	!	!	!LO:LB:g=original	!	!	!
2E/	.	1.G	.	1e	.	2G/	.
2C/	.	.	.	.	.	1g	-lu-
*	*	*Xlig	*	*	*	*	*
=42	=42	=42	=42	=42	=42	=42	=42
2G\	-le-	.	.	2d\	-ia	.	.
*	*	*	*	*	*	*custos:e	*
2D/	.	2.A/	-lu-	2d\	al-	2f\	.
!	!	!	!	!	!	!LO:LB:g=original	!
2E/	-lu-	.	.	2B/	.	1e	.
.	.	4G/	.	.	.	.	.
2C/	.	1G	.	2c/	.	.	.
=43	=43	=43	=43	=43	=43	=43	=43
1D	-ia	.	.	1A	.	0d	-ia
.	.	2F/	.	.	.	.	.
*	*	*custos:c	*	*	*	*	*
!	!	!LO:N:vis=0	!	!	!	!	!
2r	.	[1G;l	-ia.	1B	.	.	.
2.G\	al-	.	.	.	.	.	.
*	*	*	*	*	*	*	*Xij
!	!	!LO:LB:g=original	!	!	!	!	!
=44	=44	=44	=44	=44	=44	=44	=44
.	.	0G_	.	2.g\	-le-	1B	al-
4F/	.	.	.	.	.	.	.
4E/	.	.	.	.	.	.	.
4D/	.	.	.	4f\	.	.	.
2C/	.	.	.	2e\	.	2c/	-le-
*custos:C	*	*	*	*	*	*	*
2BB/	-le-	.	.	2d\	.	2d/	.
!LO:LB:g=original	!	!	!	!	!	!	!
=45	=45	=45	=45	=45	=45	=45	=45
0C	-lu-	0G_	.	1.c	-lu-	1.e	-lu-
.	.	.	.	4B/	.	4d/	.
.	.	.	.	4A/	.	4c/	.
=46	=46	=46	=46	=46	=46	=46	=46
*	*	*	*	*custos:e	*	*	*
0G;<	-ia	0G]	.	0B;	-ia	0d;	-ia
!	!	!	!	!LO:LB:g=original	!	!	!
*	*Xij	*	*	*	*	*	*
=47	=47	=47	=47	=47	=47	=47	=47
*lig	*	*lig	*	*lig	*Xij	*	*
1C	Ex-	1c	Ex-	1e	Ex-	0g	Ex-
*	*	*	*	*col	*	*	*
1G	.	1B	.	2.d\	.	.	.
.	.	.	.	4e\	.	.	.
*Xlig	*	*Xlig	*	*Xlig	*	*	*
*	*	*	*	*Xcol	*	*	*
=48	=48	=48	=48	=48	=48	=48	=48
*lig	*	*lig	*	*	*	*	*
1F	-au-	1c	-au-	1f	-au-	0a	-au-
1D	.	1d	.	1f	-di	.	.
*Xlig	*	*Xlig	*	*	*	*	*
=49	=49	=49	=49	=49	=49	=49	=49
1D	-di	1d	-di	2.f\	De-	2a\	-di
.	.	.	.	.	.	2a\	De-
.	.	.	.	4e\	.	.	.
1G	De-	1d	De-	4d\	.	1g	-us
.	.	.	.	4c/	.	.	.
.	.	.	.	4B/	.	.	.
.	.	.	.	4A/	.	.	.
=50	=50	=50	=50	=50	=50	=50	=50
2G\	-us	2d\	-us	2B/	-us	2r	.
1G	o-	1d	o-	1B	o-	1g	o-
2G\	-ra-	2d\	-ra-	2B/	-ra-	2g\	-ra-
=51	=51	=51	=51	=51	=51	=51	=51
2G\	-ti-	2d\	-ti-	2B/	-ti-	2g\	-ti-
2G\	-o-	2d\	-o-	2B/	-o-	2g\	-o-
1D	-nem.	1d	-nem	1A	-nem	1f	-nem
=52	=52	=52	=52	=52	=52	=52	=52
*lig	*	*lig	*	*lig	*	*lig	*
1G	me-	1d	me-	1B	me-	1g	me-
*	*	*	*	*custos:c	*	*	*
1F	.	1f	.	1c	.	1a	.
*Xlig	*	*Xlig	*	*Xlig	*	*Xlig	*
!	!	!	!	!LO:LB:g=original	!	!	!
=53	=53	=53	=53	=53	=53	=53	=53
*custos:C	*	*	*	*	*	*	*
1C	-am.	1e	-am	0c	-am	2g\	-am
.	.	.	.	.	.	1g	cu(m)
*	*	*custos:e	*	*	*	*	*
!LO:LB:g=original	!	!	!	!	!	!	!
2r	.	1e	cum	.	.	.	.
1C	cu(m)	.	.	.	.	2g\	de-
!	!	!LO:LB:g=original	!	!	!	!	!
=54	=54	=54	=54	=54	=54	=54	=54
.	.	2e\	De-	2r	.	0g	-pre-
2C/	de-	1e	-pre-	2G/	cum	.	.
*lig	*	*	*	*	*	*	*
1C	-pre-	.	.	2G/	de-	.	.
.	.	4d\	.	2.c/	.	.	.
.	.	4c\	.	.	.	.	.
=55	=55	=55	=55	=55	=55	=55	=55
*	*	*lig	*	*	*	*	*
*	*	*	*	*	*	*custos:g	*
1G	.	1d	-cor.	.	.	0g;	-cor
.	.	.	.	8B/	-pre-	.	.
.	.	.	.	8A/	.	.	.
.	.	.	.	2B/	.	.	.
*Xlig	*	*	*	*	*	*	*
!	!	!	!	!LO:N:vis=0	!	!	!
1C;	-cor.	1e;<	.	1c;	-cor.	.	.
*	*	*Xlig	*	*	*	*	*
!	!	!	!	!	!	!LO:LB:g=original	!
=56	=56	=56	=56	=56	=56	=56	=56
*	*	*lig	*	*lig	*	*	*
0G	a	1d	A	1B	A	1r	.
*	*	*	*	*	*	*lig	*
.	.	1B	.	1d	.	1g	A
*	*	*Xlig	*	*Xlig	*	*	*
=57	=57	=57	=57	=57	=57	=57	=57
*	*	*lig	*	*	*	*col	*
1A	ti-	1c	ti-	4A/	ti-	2.e\	.
.	.	.	.	4B/	.	.	.
.	.	.	.	1c	-mo-	.	.
*	*	*	*	*	*	*Xlig	*
.	.	.	.	.	.	4f\	.
*	*	*	*	*	*	*Xcol	*
1G	-mo-	1d	.	.	.	1g	ti-
.	.	.	.	2B/	.	.	.
*	*	*Xlig	*	*	*	*	*
=58	=58	=58	=58	=58	=58	=58	=58
2D/	-re	1d	-mo-	2A/	-re	2a\	-mo-
1G	i-	.	.	1B	i-	4g\	.
.	.	.	.	.	.	4f\	.
.	.	2d\	-re	.	.	1g	-re
2G\	-ni-	1d	i-	2B/	-ni-	.	.
=59	=59	=59	=59	=59	=59	=59	=59
*	*	*	*	*custos:G	*	*	*
1G	-mi-	.	.	0B	-mi-	2r	.
.	.	2d\	-ni-	.	.	2g\	i-
1G	-ci	1d	-mi-	.	.	2g\	-ni-
.	.	.	.	.	.	1g	-mi-
!	!	!	!	!LO:LB:g=original	!	!	!
=60	=60	=60	=60	=60	=60	=60	=60
2r	.	1d	-ci	2G/	-ci	.	.
2D/	e-	.	.	2A/	e-	4f\	.
.	.	.	.	.	.	4e\	.
2D/	-ri-	2r	.	1A	-ri-	1f	-ci
*custos:G	*	*custos:d	*	*	*	*	*
2D/	-pe.	2d\	e-	.	.	.	.
!LO:LB:g=original	!	!LO:LB:g=original	!	!	!	!	!
=61	=61	=61	=61	=61	=61	=61	=61
1G	e-	2d\	-ri-	2B/	-pe	2g\	e-
.	.	2d\	-pe	2B/	.	1g	-ri-
2G\	-ri-	2.d\	a-	2.B/	.	.	.
*	*	*	*	*	*	*custos:g	*
2G\	-pe	.	.	.	.	2g\	-pe
.	.	4e\	.	4c/	.	.	.
!	!	!	!	!	!	!LO:LB:g=original	!
=62	=62	=62	=62	=62	=62	=62	=62
2D/	a-	2f\	.	2d\	.	2r	.
2E/	-ni-	2e\	.	1c	a-	2g\	a-
2F/	-mam-	1d	-ni-	.	.	2a\	-ni-
2G\	-me-	.	.	2B/	.	1g	-mam
=63	=63	=63	=63	=63	=63	=63	=63
2C/	-am.	2c/	-mam	4c/	-ni-	.	.
.	.	.	.	4B/	.	.	.
1F	.	1c	me-	4A/	.	2.f\	me-
.	.	.	.	4G/	.	.	.
.	.	.	.	4A/	.	.	.
.	.	.	.	4G/	.	4e/	.
2G\	.	2B/	.	2.G/	-mam	4d/	.
.	.	.	.	.	.	4c/	.
=64	=64	=64	=64	=64	=64	=64	=64
*	*	*lig	*	*	*	*	*
1D	.	1A	-am	.	.	1d	.
.	.	.	.	8F/	.	.	.
.	.	.	.	8E/	.	.	.
.	.	.	.	2F/	me-	.	.
*lig	*	*	*	*	*	*	*
!	!	!LO:N:vis=1	!	!	!	!	!
1E	.	0.G;	.	1G	-am	1B	-am
*	*	*Xlig	*	*	*ij	*	*ij
=65	=65	=65	=65	=65	=65	=65	=65
1C	.	.	.	1c	me-	1e	me-
*Xlig	*	*	*	*	*	*	*
!LO:N:vis=0	!	!	!	!LO:N:vis=0	!	!LO:N:vis=0	!
1G;<	.	.	.	1B;<	-am	1d;	-am
==	==	==	==	==	==	==	==
*-	*-	*-	*-	*-	*-	*-	*-
!!!system-decoration: [(s1,s2,s3,s4)]
!!!RDF**kern: l = terminal long
!!!RDF**kern: > = above
!!!RDF**kern: < = below
!!!ENC: Mateusz Solarz
!!!END: 2022-03-09
!!!ENC: Natalia Wrzos
!!!END: 2022-03-14
